!!!COM: Haydn, Franz Joseph
!!!OTL: String Quartet in B-flat major
!!!OPS: Opus 1
!!!ONM: No. 1
!!!OMD: Menuetto II
!!!OMV: 4
!!!SCT: H III:1
!!!SCA: Thematisch-bibliographisches Werkevererzeichnis (A. van Hoboken)
!!!YOR: Bremner Edition, 1772
!!!ENC: Frances Bennion
!!!CDT: 1732/3/31/-1809/5/31/
!!!CNT: Oesterreich
!!!YEC: Copyright (c) 1994, 2000 Center for Computer Assisted Research in the Humanities
!!!YEM: Rights to all derivative editions reserved.
!!!YEM: Refer to licensing agreement for further details.
!!!YEN: United States of America
**kern	**kern	**kern	**kern
*k[b-e-]	*k[b-e-]	*k[b-e-]	*k[b-e-]
*B-:	*B-:	*B-:	*B-:
*clefF4	*clefC3	*clefF	*clefF
*M3/4	*M3/4	*M3/4	*M3/4
2r	2r	2r	2r
4r	4r	4f	4ff
=1	=1	=1	=1
4r	4r	4b-	4bb-
4r	4r	4b-	4bb-
4BB-	4B-	4b-	4bb-
=2	=2	=2	=2
4F	4f	8b-	8bb-
.	.	8a	8aa
4F	4f	4a	4aa
4G	4g	4b-	4bb-
=3	=3	=3	=3
2E-	2e-	4.cc	4.ccc
.	.	8b-	8bb-
4F	4f	4a	4aa
=4	=4	=4	=4
4BB-	4B-	4b-	4bb-
2r	2r	4f	4ff
.	.	4dd	4ff
=5	=5	=5	=5
2.r	2.r	8dd	8ff
.	.	8cc	8ee-
.	.	8cc	8ee-
.	.	8b-	8dd
.	.	8b-	8dd
.	.	8a	8cc
=6	=6	=6	=6
2.r	2.r	8dd	8ff
.	.	8cc	8ee-
.	.	8cc	8ee-
.	.	8b-	8dd
.	.	8b-	8dd
.	.	8a	8cc
=7	=7	=7	=7
2r	2r	8.b-	8.dd
.	.	32a	32cc
.	.	32b-	32dd
.	.	4cc	4ee-
4F	4f	4cc	4ee-
=8	=8	=8	=8
4B-	4b-	4b-	4dd
4B-	4b-	4r	4r
4B-	4b-	4f	4ff
=9	=9	=9	=9
4A	4a	4cc	4ccc
4r	4r	4cc	4ccc
4F	4f	4cc	4ccc
=10	=10	=10	=10
4d	4dd	8cc	8ccc
.	.	8b-	8bb-
4d	4dd	4b-	4bb-
4d	4dd	4a	4aa
=11	=11	=11	=11
2B-	2b-	8a	8aa
.	.	8g	8gg
.	.	8b-	8bb-
.	.	8g	8gg
4c	4cc	8f	8ff
.	.	8e	8ee
=12	=12	=12	=12
4F	4f	4f	4ff
4FF	4F	2r	4r
4r	4r	.	4f
=13	=13	=13	=13
2.r	2.r	2r	4ff
.	.	.	4ff
.	.	4f	4ee-
=14	=14	=14	=14
2r	2r	4ff	4dd-
.	.	4ff	4dd-
4FF	4F	4ee-	4cc
=15	=15	=15	=15
4F	4f	4dd-	4b-
4F	4f	4dd-	4b-
4E-	4e-	4cc	4a
=16	=16	=16	=16
4D-	4d-	4b-	4b-
4D-	4d-	4f	4b-
4AA	4A	4f	4cc
=17	=17	=17	=17
4BB-	4B-	4b-	4dd-
4FF	4F	4a	4cc
4r	4r	4a	8ff
.	.	.	8cc
=18	=18	=18	=18
4FF	4F	4b-	4dd-
4r	4r	4a	4cc
4F	4f	4r	4r
=19	=19	=19	=19
4B-	4b-	2r	2r
4B-	4b-	.	.
4B-	4b-	4B-	4b-
=20	=20	=20	=20
4A	4a	4e-	4ee-
4r	4r	4e-	4ee-
4F	4f	4e-	4ee-
=21	=21	=21	=21
4B-	4b-	4d	4dd
4B-	4b-	4r	4r
4B-	4b-	4B-	4b-
=22	=22	=22	=22
4E-	4e-	4g	4gg
4r	4r	4g	4gg
4E-	4ee-	4g	4gg
=23	=23	=23	=23
4B-	2dd	4f	4ff
4B-	.	8b-	8bb-
.	.	8f	8ff
4B-	4ee-	8g	8gg
.	.	8e-	8ee-
=24	=24	=24	=24
4B-	4dd	4f	4ff
2r	2r	8b-	8bb-
.	.	8f	8ff
.	.	8e-	8ee-
.	.	8d	8dd
=25	=25	=25	=25
4E-	4g	4c	4cc
4F	4d	4B-	4b-
4FF	4c	4A	4a
=26	=26	=26	=26
2BB-	4B-	4B-	2b-
.	2r	2r	.
4r	.	.	4r
=27	=27	=27	=27
4BB-	4B-	4d	4ff
4BB-	4B-	4d	8ee-
.	.	.	8dd
4BB-	4B-	4d	8cc
.	.	.	8b-
=28	=28	=28	=28
4BB-	4B-	4e-	4gg
4BB-	4B-	4e-	8ff
.	.	.	8ee-
4BB-	4B-	4e-	8dd
.	.	.	8cc
=29	=29	=29	=29
4BB-	4B-	4c	4ee-
4BB-	4B-	4e-	8dd
.	.	.	8cc
4BB-	4B-	4e-	8b-
.	.	.	8a
=30	=30	=30	=30
4BB-	4B-	4d	4b-
2r	2r	2r	4f
.	.	.	4r
=31	=31	=31	=31
4AA	4A	4f	4cc
4AA	4A	4f	4cc
4AA	4A	4f	4cc#
=32	=32	=32	=32
4BB-	4B-	4f	2dd
4BB-	4B-	4f	.
4BB-	4B-	4f	12ff
.	.	.	12dd
.	.	.	12b-
=33	=33	=33	=33
4C	4c	4f	4a
4C	4c	4f	4r
4C	4c	4e	4g
=34	=34	=34	=34
4F	4f	4f	2f
4C	4c	2r	.
4FF	4F	.	4r
=35	=35	=35	=35
4D	4d	4b-	4ff
4D	4d	4b-	4ff
4D	4d	4b-	4ff#
=36	=36	=36	=36
4E-	4e-	4b-	4gg
2r	2r	2r	8bb-
.	.	.	8gg
.	.	.	8ee-
.	.	.	8dd
=37	=37	=37	=37
4E-	4e-	4g	4cc
4E-	4e-	4g	8gg
.	.	.	8ee-
4E-	4e-	8e-	8cc
.	.	8d	8b-
=38	=38	=38	=38
4F	4f	2c	2a
8F	8f	.	.
8E-	8e-	.	.
8D	8d	4r	4r
8C	8c	.	.
=39	=39	=39	=39
4BB-	4B-	4d	4ff
2r	2r	2r	8ee-
.	.	.	8dd
.	.	.	8cc
.	.	.	8b-
=40	=40	=40	=40
4E-	4e-	4B-	4gg
2r	2r	2r	8ff
.	.	.	8ee-
.	.	.	8dd
.	.	.	8cc
=41	=41	=41	=41
4F	4f	4b-	4dd
4F	4f	4d	4b-
4F	4f	4c	4a
=42	=42	=42	=42
4B-	4b-	4B-	2b-
4BB-	4B-	2r	.
4r	4r	.	4r
==	==	==	==
*-	*-	*-	*-
!!!RWG1: This file contains only pitch and duration data.
!!!RWG2: Transposing instruments are not transposed.
!!!RWG3: Spines may have incompatible meters.
!!!RWG4: Durations of rests and tied notes may be interpreted.
!!!RWG: Key is interpreted using the Humdrum key tool.
!!!GTL: 10 Divertimentos
!!!OPT: La chasse
!!!AFT: stage1
!!!END: 1997/04/15
!!!KEY: 1273822826
!!!EMD: Converted from MuseData to Humdrum Dec 16, 2000, by Andreas Kornstaedt using muse2kern.
!!!EMD: Manual editing by Craig Sapp, Nov 2001
